X:4
T:Butter'd Pease [1] (Old English)
M:C
L:1/8
R:Country Dance
Q:"Allegro"
B:Thomas Wilson - A Companion to the Ball Room (London, 1816, p. 87)
Z:AK/Fiddler's Companion
K:G
B2d2 d2 cB|c2e2e2 dc|B2d2d2 cB|c2A2A2 dc|
B2d2d2cB|d2e2e2 dc|B2d2 ABcA|B2G2G2z2||
B2d2d2 ef|gfga g2c2|B2d2d2 cB|c2A2A2c2|
B2d2d2 ef|gfga g2c2|B2d2 ABcA|B2G2G2||

